X: 37112
T: Simon Doyle's
R: jig
M: 6/8
K: Dmajor
FFF ABd|edf edB|ABd edf|edB AFD|
FFF ABd|edf edB|efd efd|edf edB|
FFF ABd|edf edB|ABd edf|edB AFD|
FFF ABd|edf eda|baf afe|fed edB||
BAB FAd|edf edB|BAB FAd|AFD EFD|
BAB FAd|edf edB|B/c/d/B BAB|AFD EFD|
BAB FAd|edf edB|BAB FAd|AFD EFD|
BAB FAd|edf edB|fab fab|fed fed||

